img/partners/t-bank.svg

<svg width="216" height="78" viewBox="0 0 216 78" fill="none" xmlns="http://www.w3.org/2000/svg">
<path d="M107.54 36.053C106.049 35.4745 104.1 35.3013 101.978 35.3013H90.167V31.5988H110.464V25.2354H81.8535V52.7719H101.233C103.928 52.7719 105.934 52.5406 107.425 51.9616C110.579 50.7469 112.7 47.7966 112.7 43.9207C112.7 39.9872 110.693 37.268 107.54 36.053ZM103.411 45.5984C102.953 45.7721 102.322 45.8296 101.519 45.8296H90.167V41.433H101.519C102.437 41.433 103.182 41.4912 103.756 41.7803C104.443 42.1274 104.788 42.7638 104.788 43.5734C104.788 44.3834 104.386 45.2513 103.411 45.5984Z" fill="#253256"/>
<path d="M136.009 25.2354H123.854L112.674 52.7719H122.077L123.625 48.7801H136.239L137.844 52.7719H147.19L136.009 25.2354ZM125.689 42.7057L129.646 31.5988H130.276L134.232 42.7057H125.689Z" fill="#253256"/>
<path d="M157.891 42.5328V52.7721H149.578V25.2354H157.891V35.3015H171.25V25.2354H179.564V52.7721H171.25V42.5328H157.891Z" fill="#253256"/>
<path d="M192.722 42.3593V52.7721H184.408V25.2354H192.722V35.5908H195.015L205.049 25.2354H215.483L202.182 38.4251L216 52.7721H204.934L195.015 42.3593H192.722Z" fill="#253256"/>
<path d="M0 9.17676H65.9368V40.3421C65.9368 48.9196 61.4018 56.846 54.04 61.1351L32.9686 73.412L11.897 61.1351C4.53502 56.846 7.5572e-06 48.9196 7.5572e-06 40.3421L0 9.17676Z" fill="#9AACDE"/>
<path fill-rule="evenodd" clip-rule="evenodd" d="M18.1895 25.2354V35.5765C19.591 33.9796 22.1392 32.8991 25.0528 32.8991H28.2189V44.9205C28.2189 48.1187 27.3576 51.2504 26.0798 52.7902H39.8522C38.5771 51.2488 37.7179 48.121 37.7179 44.9267V32.8991H40.8842C43.7977 32.8991 46.3458 33.9796 47.7473 35.5765V25.2354H18.1895Z" fill="#253256"/>
</svg>

<svg width="216" height="78" fill="none" xmlns="http://www.w3.org/2000/svg"><path d="M107.54 36.053c-1.491-.578-3.44-.752-5.562-.752H90.167V31.6h20.297v-6.364h-28.61v27.537h19.379c2.695 0 4.701-.231 6.192-.81 3.154-1.215 5.275-4.165 5.275-8.041 0-3.934-2.007-6.653-5.16-7.868zm-4.129 9.545c-.458.174-1.089.232-1.892.232H90.167v-4.397h11.352c.918 0 1.663.058 2.237.347.687.347 1.032.984 1.032 1.793 0 .81-.402 1.678-1.377 2.025zm32.598-20.363h-12.155l-11.18 27.537h9.403l1.548-3.992h12.614l1.605 3.992h9.346l-11.181-27.537zm-10.32 17.47l3.957-11.106h.63l3.956 11.107h-8.543zm32.202-.172v10.24h-8.313V25.234h8.313V35.3h13.359V25.235h8.314v27.537h-8.314v-10.24h-13.359zm34.831-.173v10.412h-8.314V25.235h8.314v10.356h2.293l10.034-10.356h10.434l-13.301 13.19L216 52.772h-11.066l-9.919-10.413h-2.293z" fill="#253256"/><path d="M0 9.177h65.937v31.165c0 8.578-4.535 16.504-11.897 20.793L32.969 73.412 11.897 61.135C4.535 56.846 0 48.92 0 40.342V9.177z" fill="#9AACDE"/><path fill-rule="evenodd" clip-rule="evenodd" d="M18.19 25.235v10.342c1.401-1.597 3.95-2.678 6.863-2.678h3.166V44.92c0 3.199-.861 6.33-2.14 7.87h13.773c-1.275-1.541-2.134-4.669-2.134-7.863V32.899h3.166c2.914 0 5.462 1.08 6.863 2.678V25.235H18.19z" fill="#253256"/></svg>
